packages/brickdoc-design-icons/assets/file/file.svg

<svg width="1em" height="1em" viewBox="0 0 24 24" fill="none" xmlns="http://www.w3.org/2000/svg">
<path fill-rule="evenodd" clip-rule="evenodd" d="M3 3C3 1.89543 3.89543 1 5 1H15.5C15.7835 1 16.0537 1.12032 16.2433 1.33104L20.7433 6.33104C20.9086 6.51466 21 6.75296 21 7V21C21 22.1046 20.1046 23 19 23H5C3.89544 23 3 22.1046 3 21V3ZM15.0546 3H5V21H19V7.38374L15.0546 3Z" fill="currentColor"/>
<path d="M12.1441 6.85C11.1431 6.85 10.3417 7.14903 9.74481 7.75997C9.13317 8.37252 8.85001 9.21172 8.85001 10.2555V10.4055H10.6435V10.2555C10.6435 9.6929 10.7464 9.27564 10.9437 8.99583L10.9469 8.99084C11.1598 8.66192 11.5092 8.49615 12.0524 8.49615C12.469 8.49615 12.7779 8.61082 12.9905 8.83284C13.1962 9.06127 13.3173 9.37983 13.3173 9.8022C13.3173 10.1085 13.2129 10.4058 12.9963 10.6839L12.8465 10.8671C12.4223 11.2643 12.0803 11.6091 11.8219 11.9026C11.5648 12.1947 11.383 12.4442 11.2882 12.6497C11.0917 13.048 11.0116 13.5258 11.0116 14.0604V14.4027H12.8181V14.0604C12.8181 13.7522 12.879 13.4859 13 13.2321C13.1093 13.0029 13.2674 12.786 13.4874 12.5938L13.4901 12.5913C14.1169 12.0162 14.5046 11.6392 14.6296 11.4937L14.6373 11.4829C14.9731 11.0134 15.15 10.4181 15.15 9.70604C15.15 8.83469 14.8762 8.13242 14.3162 7.61821C13.758 7.09187 13.0237 6.85 12.1441 6.85Z" fill="currentColor"/>
<path d="M11.9083 14.7758C11.5819 14.7758 11.3082 14.8866 11.0829 15.1071C10.8528 15.3322 10.7496 15.6206 10.7496 15.956C10.7496 16.2915 10.8528 16.5799 11.0829 16.805C11.3043 17.0217 11.5767 17.15 11.9083 17.15C12.2347 17.15 12.5084 17.0392 12.7337 16.8187C12.9618 16.5955 13.0801 16.2946 13.0801 15.956C13.0801 15.6159 12.9609 15.3313 12.7505 15.1107L12.7468 15.1071C12.5202 14.8852 12.2326 14.7758 11.9083 14.7758Z" fill="currentColor"/>
</svg>

<svg  viewBox="0 0 24 24" width="1em" height="1em" fill="none" xmlns="http://www.w3.org/2000/svg"><path fill-rule="evenodd" clip-rule="evenodd" d="M3 3a2 2 0 0 1 2-2h10.5a1 1 0 0 1 .743.331l4.5 5A1 1 0 0 1 21 7v14a2 2 0 0 1-2 2H5a2 2 0 0 1-2-2V3Zm12.055 0H5v18h14V7.384L15.055 3Z" fill="#34313c"/><path d="M12.144 6.85c-1 0-1.802.299-2.4.91-.61.613-.894 1.452-.894 2.495v.15h1.793v-.15c0-.562.103-.98.3-1.26l.004-.004c.213-.33.562-.495 1.105-.495.417 0 .726.115.939.337.205.228.326.547.326.97 0 .305-.104.603-.32.88l-.15.184c-.425.397-.767.742-1.025 1.036-.257.292-.439.541-.534.747-.196.398-.276.876-.276 1.41v.343h1.806v-.343c0-.308.061-.574.182-.828.11-.23.267-.446.487-.638l.003-.003c.627-.575 1.015-.952 1.14-1.097l.007-.011c.336-.47.513-1.065.513-1.777 0-.871-.274-1.574-.834-2.088-.558-.526-1.292-.768-2.172-.768ZM11.908 14.776a1.134 1.134 0 0 0-1.158 1.18c0 .335.103.624.333.849.221.217.494.345.825.345.327 0 .6-.11.826-.331.228-.223.346-.524.346-.863 0-.34-.12-.625-.33-.845l-.003-.004a1.164 1.164 0 0 0-.839-.331Z" fill="#34313c"/></svg>
